icons/ghost-smile-line.svg

<svg viewBox="0 0 24 24" fill="currentColor" xmlns="http://www.w3.org/2000/svg"><path d="M12 2C16.9706 2 21 6.02944 21 11V18.5C21 20.433 19.433 22 17.5 22C16.3001 22 15.2413 21.3962 14.6107 20.476C14.0976 21.3857 13.1205 22 12 22C10.8795 22 9.9024 21.3857 9.38728 20.4754C8.75869 21.3962 7.69985 22 6.5 22C4.63144 22 3.10487 20.5357 3.00518 18.692L3 18.5V11C3 6.02944 7.02944 2 12 2ZM12 4C8.21455 4 5.1309 7.00478 5.00406 10.7593L5 11L4.99927 18.4461L5.00226 18.584C5.04504 19.3751 5.70251 20 6.5 20C6.95179 20 7.36652 19.8007 7.64704 19.4648L7.73545 19.3478C8.57033 18.1248 10.3985 18.2016 11.1279 19.4904C11.3053 19.8038 11.6345 20 12 20C12.3651 20 12.6933 19.8044 12.8687 19.4934C13.5692 18.2516 15.2898 18.1317 16.1636 19.2151L16.2606 19.3455C16.5401 19.7534 16.9976 20 17.5 20C18.2797 20 18.9204 19.4051 18.9931 18.6445L19 18.5V11C19 7.13401 15.866 4 12 4ZM16 13C16 15.2091 14.2091 17 12 17C9.8578 17 8.10892 15.316 8.0049 13.1996L8 13H10C10 14.1046 10.8954 15 12 15C13.1046 15 14 14.1046 14 13H16ZM12 7C13.1046 7 14 7.89543 14 9C14 10.1046 13.1046 11 12 11C10.8954 11 10 10.1046 10 9C10 7.89543 10.8954 7 12 7Z"/></svg>

<svg xmlns="http://www.w3.org/2000/svg" viewBox="0 0 24 24">
    <g>
        <path fill="none" d="M0 0h24v24H0z"/>
        <path fill-rule="nonzero" d="M12 2a9 9 0 0 1 9 9v7.5a3.5 3.5 0 0 1-6.39 1.976 2.999 2.999 0 0 1-5.223 0 3.5 3.5 0 0 1-6.382-1.783L3 18.499V11a9 9 0 0 1 9-9zm0 2a7 7 0 0 0-6.996 6.76L5 11v7.446l.002.138a1.5 1.5 0 0 0 2.645.88l.088-.116a2 2 0 0 1 3.393.142.999.999 0 0 0 1.74.003 2 2 0 0 1 3.296-.278l.097.13a1.5 1.5 0 0 0 2.733-.701L19 18.5V11a7 7 0 0 0-7-7zm4 9a4 4 0 0 1-7.995.2L8 13h2a2 2 0 1 0 4 0h2zm-4-6a2 2 0 1 1 0 4 2 2 0 0 1 0-4z"/>
    </g>
</svg>
